X: 19440
T: Jackson's
R: jig
M: 6/8
K: Gmajor
BAG Bcd|ecc efg|dcB gdB|BA^G ABc|
BAG Bcd|ecc efg|dcB gdB|1 cAF G2c:|2 cAF GBd||
~g3 bag|fed gfg|dcB gdB|BA^G ABd|
~g3 bag|fed ^cde|dcB gdB|1 cAF GBd|
~g3 bag|fed gfg|dcB gdB|BA^G ABc|
BAG Bcd|ecc efg|dcB gdB|1 cAF G2c||

